X:508
T: Ertongtuan fangshao
N: C1927
O: China, Hebei Weixian
S: IV, 50]
R: Xiaodiao, Erge]
M: 2/4
L: 1/16
K: F
A3cF2G2 | A2AGA4 |
D2F2G2c2 | dddAc4 |
d2cAd2cA | d2A2d4 |
GAc2AGF2 | dcAGF4 |
AAAGA4 | dddAc4 |
GAc2AGF2 | c2AGF4

